!!!COM: Charles Gounod
!!!CNT: Francais
!!!TXO: Francais
!!!OTL: Chanson de Printemps
!!!LYR: Euge\ne Tourneux
!!!ENC: Jacob Pegg
!!!YOR: Romantic French Song 1830-1870 -David Tunley, ed.,
!!!YOR: New York: Garland Publishing, Inc., 1995, Vol. 5
!!!ODT: 1860/
!!NB: Vocal melody and text only encoded.
!!NB: First instance of melodic material only encoded.
**kern	**silbe
*clef G2	*
*k[f#]	*
*M6/8	*
*MM[allegretto]	*
!!created: 5/28/03 23:21
!!proofed and posted: 5/28/03 23:51
!!edit time: 29 min.
=8	=8
{[4.b	{Viens
4b]	|
8b	en-
=9	=9
[4.c	-fant,
8c]}	|}
8r	.
{8f#	{la
=10	=10
4.g	ter-
(8g	-re
8b)	|
8a	s'e-
=11	=11
4.a	-veil-
4b}	-le}
8r	.
=12	=12
{4.g	{Le
4a	so-
8cc	-leil
=13	=13
4.b	rit
(16aq	au
16bq	|
8a)	|
8g	ga-
8a	-zon
=14	=14
[2.g	vert!
=15	=15
4g]}	|}
8r	.
4r	.
{8g	{La
=16	=16
[4.a	fleur
8a]	|
8b	au
8a	ca-
=17	=17
4.a	-lice
4dd	entr'
8cc	ou-
=18	=18
[4.b	-vert
8b]}	|}
8r	.
{8b	{Re-
=19	=19
8b	-coit
8a#	les
8b	bai-
8dd	-sers
8cc#	de
8b	l'a-
=20	=20
[4.a	-beil
(4a]	|
8g)	|
=21	=21
4f#}	-le}
8r	.
4r	.
{8a	{Re-
=22	=22
!! dotted the following note to correct timing
[4.d	-coit
8d]	|
8a	les
8f#	bai-
=23	=23
8d	-sers
8c#	de
8d	l'a-
4.e	-beil-
=24	=24
4d}	-le.}
8r	.
4r	.
8r	.
=25	=25
4r	.
4r	.
4r	.
=26	=26
{4a	{Res-
8a	-pi-
4.dd	-rons
=27	=27
(8dd	cet
8cc)	|
8b	air
[4.dd	pur!
=28	=28
8dd]}	|}
8r	.
{8a	{En-
4a	-i-
8dd	-vrons
=29	=29
(8dd	nous
8cc)	|
8b	d'a-
8b}	-zur!}
8r	.
{8g	{La\~
=30	=30
4.g	~haut
8cc	sur
8b	la
8a	col-
=31	=31
4.b	-li-
4dd}	-ne}
8r	.
=32	=32
{4ee	{Viens
8dd	cueil-
8cc	-lir
8b	l'au-
8a	-be/-
=33	=33
4.dd	-pi-
8g}	-ne!}
8r	.
{8g	{La
=34	=34
4g	nei-
8g	-ge
4a	des
8a	pom-
=35	=35
[4.a	-miers
8a]}	|}
8r	.
{8b	{Par-
=36	=36
4b	-fu-
8b	-me
4cc	les
8cc	sen-
=37	=37
!!dotted following note to correct timing
[4.cc	-tiers
8cc]}	|}
8r	.
{8cc#	{La
=38	=38
4dd	nei-
8a	-ge
(8a	des
8b)	|
8ccn	pom-
=39	=39
[4.b	-miers
8b]}	|}
{(8a	{Par-
8g)	|
=40	=40
(8g	-fu-
8f#)	|
8e	-me
4d	les
8a	sen-
=41	=41
[4.g	-tiers
8g]}	|}
8r	.
8r	.
*-	*-
